svg/s/LS.svg

<svg width="16" height="12" viewBox="0 0 16 12" fill="none" xmlns="http://www.w3.org/2000/svg">
<g clip-path="url(#clip0_270_55141)">
<rect width="16" height="12" fill="white"/>
<path fill-rule="evenodd" clip-rule="evenodd" d="M0 8H16V12H0V8Z" fill="#55BA07"/>
<path fill-rule="evenodd" clip-rule="evenodd" d="M0 4H16V8H0V4Z" fill="#F7FCFF"/>
<path fill-rule="evenodd" clip-rule="evenodd" d="M0 0H16V4H0V0Z" fill="#3D58DB"/>
<path fill-rule="evenodd" clip-rule="evenodd" d="M7.625 4.12015C7.36366 4.19032 7.22566 4.37093 7.22566 4.69048C7.22566 5.05568 7.40497 5.39846 7.625 5.57524V4.12015ZM8.25 5.56546C8.46392 5.38625 8.63588 5.04985 8.63588 4.69142C8.63588 4.38105 8.5 4.20125 8.25 4.12664V5.56546ZM8.22893 3.86614C8.63814 3.95704 8.93428 4.23572 8.93428 4.6885C8.93428 5.01781 8.77762 5.41815 8.53474 5.69288L9.7516 6.88639L10.0518 6.78756L10.5 7.46739C10.5 7.46739 9.36704 8 7.96671 8C6.56639 8 5.5 7.46739 5.5 7.46739L5.88158 6.88639L6.18974 6.98741L7.31872 5.71358C7.06522 5.43855 6.9005 5.02618 6.9005 4.6885C6.9005 4.21971 7.21796 3.93754 7.64969 3.8572C7.69721 3.74522 7.80818 3.66667 7.9375 3.66667C8.07023 3.66667 8.18363 3.74942 8.22893 3.86614Z" fill="#1D1D1D"/>
</g>
<defs>
<clipPath id="clip0_270_55141">
<rect width="16" height="12" fill="white"/>
</clipPath>
</defs>
</svg>

<svg width="16" height="12" fill="none" xmlns="http://www.w3.org/2000/svg">
  <mask id="a" maskUnits="userSpaceOnUse" x="0" y="0" width="16" height="12">
    <path fill="#fff" d="M0 0h16v12H0z"/>
  </mask>
  <g mask="url(#a)" fill-rule="evenodd" clip-rule="evenodd">
    <path d="M0 8h16v4H0V8z" fill="#55BA07"/>
    <path d="M0 4h16v4H0V4z" fill="#F7FCFF"/>
    <path d="M0 0h16v4H0V0z" fill="#3D58DB"/>
    <path d="M7.625 4.12c-.261.07-.4.25-.4.57 0 .366.18.708.4.885V4.12zm.625 1.445a1.18 1.18 0 00.386-.874c0-.31-.136-.49-.386-.564v1.438zm-.021-1.699c.41.091.705.37.705.823 0 .329-.156.73-.4 1.004l1.218 1.193.3-.098.448.68S9.367 8 7.967 8 5.5 7.467 5.5 7.467l.382-.58.308.1 1.129-1.273c-.254-.275-.418-.688-.418-1.026 0-.468.317-.75.749-.83a.313.313 0 01.579.008z" fill="#1D1D1D"/>
  </g>
</svg>
